X: 37644
T: Snow On The Hills
R: reel
M: 4/4
K: Edorian
E2 BE GEBG|E2 GB ADFD|E2 BE G2 A/B/c|dcdB AFDF|
E2 BE G2 BG|EFGB ADFA|EFGA Bcde|dBAG FdAF||
Bee^d e/f/g fe|Beed BdAF|Bee^d e2 fe|dBAF dFAd|
Bee^d egfe|Beed B2 c/d/e|fgfe df e/d/c|dedB ADFD||

